_site/images/features-page/icon-cloud-database.svg

<svg fill="none" height="30" viewBox="0 0 30 30" width="30" xmlns="http://www.w3.org/2000/svg"><rect fill="#65a2fd" height="30" rx="7" width="30"/><path clip-rule="evenodd" d="m23.5906 17.0454c0-.9037-.7326-1.6364-1.6364-1.6364h-4.9091c-.9037 0-1.6363.7327-1.6363 1.6364h-2.4546v-2.4545h1.9064c1.4686.0024 2.7222-1.0605 2.96-2.5097s-.6104-2.85695-2.0027-3.32397c-.7676-1.60065-2.4799-2.52359-4.239-2.28482-1.75902.23877-3.16334 1.58475-3.47649 3.33209-1.14452.3762-1.84684 1.5274-1.65769 2.7172s1.21385 2.0665 2.4186 2.0692h2.45458v6.5454c0 .4519.3663.8182.8181.8182h3.2728c0 .9037.7326 1.6364 1.6363 1.6364h4.9091c.9038 0 1.6364-.7327 1.6364-1.6364v-1.6364c-.003-.2881-.082-.5703-.2291-.8181.1471-.2478.2261-.5301.2291-.8182zm-14.72725-4.0909c-.45187 0-.81818-.3663-.81818-.8181 0-.4519.36631-.8182.81818-.8182s.81818-.3663.81818-.8182c-.01364-1.20619.85117-2.24351 2.04007-2.44709 1.189-.20359 2.3497.4869 2.7381 1.6289.0978.2833.3426.49049.6382.53999.6645.11 1.1463.693 1.1291 1.3664 0 .7546-.6118 1.3663-1.3664 1.3663zm4.09085 7.3636h2.4546c.003-.2882.082-.5704.2291-.8182-.1471-.2478-.2261-.5301-.2291-.8182h-2.4546zm4.091 1.6364v-1.6364h4.9091v1.6364zm0-4.909v1.6363h4.9091v-1.6363z" fill="#fff" fill-rule="evenodd"/></svg>

<svg width="30" height="30" viewBox="0 0 30 30" fill="none" xmlns="http://www.w3.org/2000/svg">
<rect width="30" height="30" rx="7" fill="#65A2FD"/>
<path fill-rule="evenodd" clip-rule="evenodd" d="M23.5906 17.0454C23.5906 16.1417 22.858 15.409 21.9542 15.409H17.0451C16.1414 15.409 15.4088 16.1417 15.4088 17.0454H12.9542V14.5909H14.8606C16.3292 14.5933 17.5828 13.5304 17.8206 12.0812C18.0584 10.632 17.2102 9.22425 15.8179 8.75723C15.0503 7.15658 13.338 6.23364 11.5789 6.47241C9.81988 6.71118 8.41556 8.05716 8.10241 9.8045C6.95789 10.1807 6.25557 11.3319 6.44472 12.5217C6.63387 13.7115 7.65857 14.5882 8.86332 14.5909H11.3179V21.1363C11.3179 21.5882 11.6842 21.9545 12.136 21.9545H15.4088C15.4088 22.8582 16.1414 23.5909 17.0451 23.5909H21.9542C22.858 23.5909 23.5906 22.8582 23.5906 21.9545V20.3181C23.5876 20.03 23.5086 19.7478 23.3615 19.5C23.5086 19.2522 23.5876 18.9699 23.5906 18.6818V17.0454ZM8.86335 12.9545C8.41148 12.9545 8.04517 12.5882 8.04517 12.1364C8.04517 11.6845 8.41148 11.3182 8.86335 11.3182C9.31522 11.3182 9.68153 10.9519 9.68153 10.5C9.66789 9.29381 10.5327 8.25649 11.7216 8.05291C12.9106 7.84932 14.0713 8.53981 14.4597 9.68181C14.5575 9.96511 14.8023 10.1723 15.0979 10.2218C15.7624 10.3318 16.2442 10.9148 16.227 11.5882C16.227 12.3428 15.6152 12.9545 14.8606 12.9545H8.86335ZM12.9542 20.3181H15.4088C15.4118 20.0299 15.4908 19.7477 15.6379 19.4999C15.4908 19.2521 15.4118 18.9698 15.4088 18.6817H12.9542V20.3181ZM17.0452 21.9545V20.3181H21.9543V21.9545H17.0452ZM17.0452 17.0455V18.6818H21.9543V17.0455H17.0452Z" fill="white"/>
</svg>
